X:1
T:Adorna thalamum - Asola
T:James Gibb editions
T:#
%%score [ 1 2 3 4 ]
L:1/8
Q:1/4=160
M:none
K:F
V:1 treble-8 nm="Tenor I"
V:2 treble-8 nm="Tenor II"
V:3 bass nm="Baritone"
V:4 bass nm="Bass"
V:1
"^Adorna thalamum""^Giovanni Matteo Asola\n(c.1532-1609)" z16 | z8 c8 | f12 e4 | d4 d4 c8- | %4
w: |A-|dor- na|tha- la- mum,|
 c8 z4 c4 | f12 e4 | d4 d4 c8 | (f6 e2 d4) c4 | B8 A8 | c8 d8- | d4 f4 e8 | d16 | d8 e8 | c16 | %14
w: * a-|dor- na|tha- la- mum|tu\- * * um|Si- on;|et su\-|* sci- pe|Re-|gem, Re-|gem|
 (d4 f8 e4) | f4 c8 A4 | c4 d4 (c2 BA B4) | A8 z8 | z4 f8 d4 | f4 c4 (d2 e2 f4- | %20
w: Chri\- * *|stum: Quem Vir-|go con- ce\- * * *|pit,|quem Vir-|go con- ce\- * *|
 f2 e2 e2 dc d4) e4 | z4 c8 A4 | c4 d4 (c2 BA B4) | A4 f4 e4 d2 d2 | c8 c8 | z4 c4 A4 G4 | %26
w: * * * * * * pit,|quem Vir-|go con- ce\- * * *|pit. quem Vir- go con-|ce- pit,|quem Vir- go|
 A4 (d6 e2 f4- | f4 e4) f8 | z8 (f6 e2 | d2 c2 d4 c6 B2 | A2 G2 A4) F8 | z4 f8 e4 | f4 d4 c8- | %33
w: con- ce\- * *|* * pit,|Vir\- *||* * * go,|Vir- go|pe- pe- rit,|
 c8 z8 | z4 c8 =B4 | c4 A4 G8 | z4 f8 e4 | (f6 e2 d4) d4 | c8 z8 | z4 f8 e4 | d4 d4 c8 | %41
w: |Vir- go|pe- pe- rit,|Vir- go|pe\- * * pe-|rit,|Vir- go|pe- pe- rit,|
 z4 G4 G4 G4 | c8 z4 f4- | f4 e4 (d8- | d4 c2 B2 c8) | d16 | z4 c4 c4 c4 | d4 f8 e4 | d8 c4 c4 | %49
w: quem ge- nu-|it a\-|* do- ra\-||vit,|quem ge- nu-|it a- do-|ra- vit, a-|
 d8 (f8- | f4 e2 d2 e8) | f4[Q:1/4=158] f4[Q:1/4=154] d4[Q:1/4=150] (f4- | %52
w: do- ra\-||vit, a- do- ra\-|
[Q:1/4=148] f2[Q:1/4=146] e2[Q:1/4=144] d2[Q:1/4=143] c2[Q:1/4=139] d8) |[Q:1/4=136] c16 |] %54
w: |vit.|
V:2
 z16 | z16 | z4 F4 c8- | c4 B4 A4 G4 | F4 A8 G4 | (F8 c8) | A4 (F2 G2 A2 B2 c4) | B4 A4 (D4 F4- | %8
w: ||A- dor\-|* na tha- la-|mum tu- um|Si\- *|on; tu\- * * * *|* um Si\- *|
 F4 E4) F8 | G8 B8- | B4 d4 c8 | (B4 A2 G2) A8 | =B8 (c6 _B2 | G4 A6 B2 c4- | c4 B4 c6 B2 | %15
w: * * on;|et su\-|* sci- pe|Re\- * * *|gem Chri\- *|||
 A2 G2 A4) (F6 G2 | A8) z8 | z4 c8 A4 | c4 d4 (c2 BA B4 | A2 B2 c2 A2 B2 A2 A2 GF | G6 A2 =B4) c4 | %21
w: * * * stum: *||Quem Vir-|go con- ce\- * * *||* * * pit,|
 z16 | z16 | z8 z4 G4- | G4 E4 G4 A4 | (G2 FE F4) E4 D4 | E4 G4 (F2 G2 A2 F2) | G8 F8- | F8 z8 | %29
w: ||quem|* Vir- go con-|ce\- * * * pit, quem|Vir- go con\- * * *|ce- pit,||
 z8 z4 (c4- | c2 B2 A2 G2 A8) | F8 z4 c4- | c4 =B4 c4 A4 | G8 z8 | z8 z4 G4 | A4 (c6 B2 G4 | %36
w: Vir\-||go, Vir\-|* go pe- pe-|rit,|Vir-|go pe\- * *|
 A4 G2 F2 G4) G4 | F16 | z4 c8 B4 | A4 A4 G4 A4 | B4 (F2 G2 A2 B2 c4- | c4 =B4 (c6 _BA | %42
w: * * * * pe-|rit,|Vir- go|pe- pe- rit, Vir-|go pe\- * * * *|* pe- rit, * *|
 G4) G4 A4 F4- | F2 D2 A8) G4 | A8 z4 A4 | A4 A4 (F2 G2 A2 B2 | c6 B2 A4) G4 | (A4 B4) c8 | A16 | %49
w: * Vir- go pe\-|* * * pe-|rit, quem|ge- nu- it * * *|* * * a-|do\- * ra-|vit,|
 (F8 c8) | c16 | A16 | (B16 | A16) |] %54
w: a\- *|do-|ra-|vit.||
V:3
 F,8 C8- | C4 B,4 A,4 G,4 | F,4 (A,8 G,2 F,2) | G,8 z8 | z4 F,4 C8- | C4 B,4 A,4 G,4 | %6
w: A- dor\-|* na tha- la-|mum tu\- * *|um,|a- dor\-|* na tha- la-|
 F,4 A,8 G,4 | F,16 | G,8 z8 | E,8 F,8- | F,4 B,4 G,8 | (F,4 G,8 F,4) | G,12 (C4- | %13
w: mum tu- um|Si-|on;|et su\-|* sci- pe|Re\- * *|gem Chri\-|
 C2 B,2 A,2 G,2 F,4 G,4 | A,4 G,2 F,2 G,8) | F,8 z4 F,4- | F,4 D,4 F,4 G,4 | (F,6 G,2 A,2 B,2 C4) | %18
w: ||stum: Quem|* Vir- go con-|ce\- * * * *|
 F,8 z8 | z16 | z4 G,8 E,4 | G,4 A,4 (G,2 F,E, F,4) | E,4 D,4 F,4 G,4- | G,4 F,4 (G,6 F,2 | %24
w: pit,||quem Vir-|go con- ce\- * * *|pit, quem Vir- go|* con- ce\- *|
 E,2 D,2 G,4) C,4 C4- | C4 A,4 C4 D4 | (C2 B,A, B,4) (A,6 B,2 | C8) z4 (C4- | C2 B,2 A,2 G,2 A,8) | %29
w: * * * pit, quem|* Vir- go con-|ce\- * * * pit, *|* Vir\-||
 F,4 (A,6 G,F, G,4) | F,8 z4 A,4- | A,4 B,4 A,4 G,4 | F,4 G,4 E,4 F,2 F,2 | C,4 C8 =B,4 | %34
w: go, Vir\- * * *|go, Vir\-|* go pe- pe-|rit, Vir- go pe- pe-|rit, Vir- go|
 C4 A,4 G,8 | z8 z4 C4- | C4 =B,4 (C6 _B,2 | A,2 G,2 A,4) (D,2 E,2 F,2 G,2 | A,4 F,6 E,D, E,4) | %39
w: pe- pe- rit,|Vir\-|* go pe\- *|* * * pe\- * * *||
 F,8 z4 C,4 | D,4 (F,6 E,2 E,2 D,C, | D,4 D,4 C,8 | z4 C4 C4 B,4 | A,8 (D,6 E,2 | F,4) F,4 E,8 | %45
w: rit, Vir-|go pe\- * * * *|* pe- rit,|quem ge- nu-|it a\- *|* do- ra-|
 D,8 z4 F,4 | G,4 A,4 F,4 C,4 | F,8 G,8 | F,8 E,8 | D,8 A,8) | G,16 | F,16- | F,16 | F,16 |] %54
w: vit, quem|ge- nu- it a-|do- ra-|vit, a-|do\- *|ra-|vit.|||
V:4
 z8 C,8 | F,12 E,4 | D,4 D,4 C,8 | z8 z4 C,4 | F,12 E,4 | D,4 D,4 C,8 | (D,6 E,2 F,4) C,4 | %7
w: A-|dor- na|tha- la- mum,|a-|dor- na|tha- la- mum|tu\- * * um|
 (D,6 C,2 B,,4 A,,4 | G,,8) F,,8 | C,8 B,,8- | B,,4 B,,4 C,8 | D,16 | G,,8 (C,6 D,2 | %13
w: Si\- * * *|* on;|et su\-|* sci- pe|Re-|gem Chri\- *|
 E,2 D,E, F,8 E,4 | D,8 C,8) | F,,16 | z16 | z8 z4 F,4- | F,4 D,4 F,4 G,4 | (F,6 E,2 D,8) | %20
w: ||stum:||Quem|* Vir- go con-|ce\- * *|
 C,8 z4 C,4- | C,4 A,,4 C,4 D,4 | (C,2 B,,A,, B,,4) A,,4 G,,4 | D,8 C,4 G,,4 | (C,6 D,2 E,4 F,4) | %25
w: pit, quem|* Vir- go con-|ce\- * * * pit, quem|Vir- go con-|ce\- * * *|
 C,4 F,,4 A,,4 B,,4 | (A,,4 G,,4) (D,8 | C,8) F,,8 | z4 (F,6 E,2 D,2 C,2 | D,6 E,2 F,4) C,4 | %30
w: pit, quem Vir- go|con\- * ce\-|* pit,|Vir\- * * *|* * * go,|
 z4 (F,6 E,2 D,2 C,2 | D,8) C,8 | z8 z4 F,4- | F,4 E,4 F,4 D,4 | C,8 z8 | F,8 E,8 | D,6 D,2 C,8 | %37
w: Vir\- * * *|* go,|Vir\-|* go pe- pe-|rit,|Vir- go|pe- pe- rit,|
 z8 B,,8 | A,,8 G,,6 G,,2 | F,,8 C,8 | B,,8 A,,6 A,,2 | G,,8 z4 C,4 | C,4 C,4 A,,4 D,4- | %43
w: Vir-|go pe- pe-|rit, Vir-|go pe- pe-|rit, quem|ge- nu- it a\-|
 D,4 C,4 B,,8 | A,,16 | z4 D,4 D,4 D,4 | C,4 F,8 E,4 | D,8 C,8 | D,8 A,,8 | B,,8 F,,8 | C,16 | %51
w: * do- ra-|vit,|quem ge- nu-|it a- do-|ra- vit,|a- do-|ra- vit,|a-|
 D,16 | B,,16 | F,,16 |] %54
w: do-|ra-|vit.|

